icons/ventilator.svg

<svg width="48" height="48" viewBox="0 0 48 48" fill="none" xmlns="http://www.w3.org/2000/svg">
<path d="M37 16V18H30V16H37Z" fill="black"/>
<path d="M30 13V15H37V13H30Z" fill="black"/>
<path d="M30 21H37V19H30V21Z" fill="black"/>
<path fill-rule="evenodd" clip-rule="evenodd" d="M7.00019 8C6.69091 8 6.38482 8.01274 6.08241 8.03769L5.91797 6.04446C6.27502 6.015 6.63596 6 7.00019 6C14.1799 6 20.0002 11.8203 20.0002 19V20.3021L20.043 20.3524C22.9653 23.7912 24.5135 27.1795 24.5354 30.5221C25.4609 30.6012 26.2316 30.8943 26.8252 31.4286C27.5196 32.0536 27.837 32.8886 27.9839 33.6961C28.1297 34.4983 28.1246 35.3725 28.093 36.1798C28.0812 36.4802 28.0662 36.7666 28.0517 37.0434C28.025 37.5523 28 38.0289 28 38.5C28 38.8934 28.1325 39.0827 28.3171 39.2166C28.5538 39.3884 28.9777 39.5314 29.6273 39.5603C30.92 39.6178 32.67 39.2042 34.2267 38.4941C34.9957 38.1434 35.682 37.7362 36.2157 37.3112C36.7614 36.8768 37.0843 36.4742 37.2225 36.1523C37.34 35.8784 37.3232 35.6852 37.1956 35.4791C37.0306 35.2127 36.6097 34.8236 35.6576 34.421C34.6319 33.9873 33.873 33.4011 33.3444 32.6755C32.8185 31.9536 32.5667 31.1572 32.4536 30.3741C32.3421 29.6018 32.3616 28.8099 32.4006 28.0817C32.4125 27.8584 32.426 27.644 32.4391 27.4358C32.4707 26.9333 32.5 26.467 32.5 26H31V24H26C25.4477 24 25 23.5523 25 23C25 22.4477 25.4477 22 26 22H27V8.5C27 7.11929 29.9101 6 33.5 6C37.0898 6 40 7.11929 40 8.5V22H41C41.5523 22 42 22.4477 42 23C42 23.5523 41.5523 24 41 24H36V26H34.5C34.5 26.534 34.4646 27.0977 34.4315 27.6242C34.4193 27.8185 34.4074 28.0077 34.3977 28.1885C34.36 28.8931 34.3512 29.521 34.4331 30.0883C34.5135 30.6449 34.6767 31.1078 34.9609 31.4979C35.2425 31.8843 35.6888 32.2627 36.4366 32.579C37.5633 33.0554 38.4187 33.6557 38.8958 34.4259C39.4102 35.2564 39.4012 36.1469 39.0604 36.9411C38.7401 37.6872 38.1385 38.3369 37.4615 38.8759C36.7726 39.4244 35.9383 39.9117 35.0567 40.3138C33.3123 41.1094 31.2414 41.6341 29.5385 41.5583C28.6903 41.5206 27.8227 41.329 27.1425 40.8354C26.4101 40.3039 26 39.4969 26 38.5C26 37.9797 26.0297 37.4084 26.0579 36.8646C26.0716 36.6009 26.085 36.3432 26.0945 36.1014C26.1253 35.315 26.1203 34.6267 26.0161 34.0539C25.9129 33.4864 25.7304 33.1339 25.4873 32.9152C25.2912 32.7387 24.9621 32.5651 24.3654 32.5146C23.7962 35.6985 21.8166 38.653 18.6577 41.4097L18.2899 41.7307L17.8105 41.6381L17.8048 41.637L17.7911 41.6343L17.741 41.6243C17.6978 41.6156 17.6352 41.6029 17.5556 41.5862C17.3966 41.5528 17.1692 41.5036 16.8923 41.4397C16.3397 41.312 15.5842 41.1243 14.7775 40.8843C13.9742 40.6453 13.1008 40.3489 12.3196 40.0009C11.5641 39.6642 10.7879 39.2337 10.2718 38.6854C10.2456 38.6576 10.2206 38.6294 10.1968 38.6008L10.0002 38.5165V43H8.00019V37C8.00019 36.6639 8.16907 36.3502 8.4497 36.1652C8.73032 35.9801 9.08514 35.9484 9.39411 36.0809L10.1124 36.3887C10.22 36.1914 10.3447 36.0076 10.4695 35.8407C10.9454 35.204 11.6744 34.4949 12.3838 33.8048C12.4661 33.7248 12.5481 33.645 12.6294 33.5656C13.4498 32.7648 14.2567 31.9541 14.861 31.1322C15.4742 30.2983 15.7809 29.5811 15.7809 28.9688C15.7809 26.9154 16.4634 24.78 17.1054 23.2111C17.431 22.4155 17.7562 21.7416 18.0007 21.2655L18.0245 21.2192C18.0084 21.1476 18.0002 21.0741 18.0002 21V19C18.0002 12.9249 13.0753 8 7.00019 8ZM37.3782 8.59892C37.6731 8.71232 37.8734 8.81908 38 8.90036V22H29V8.90036C29.1266 8.81908 29.3269 8.71232 29.6217 8.59892C30.5158 8.25506 31.8864 8 33.5 8C35.1136 8 36.4842 8.25506 37.3782 8.59892ZM18.9564 23.9686C19.1298 23.545 19.3032 23.1585 19.4621 22.8233C21.756 25.8665 22.6982 28.6542 22.5128 31.2336C22.3118 34.0297 20.7699 36.8012 17.7121 39.5742C17.6038 39.5505 17.4797 39.5227 17.3424 39.491C16.8169 39.3696 16.1036 39.1922 15.3478 38.9673C14.5885 38.7414 13.8055 38.4734 13.1336 38.174C12.5278 37.9041 12.0908 37.6424 11.833 37.4154C11.8708 37.335 11.942 37.2112 12.0713 37.0382C12.4464 36.5366 13.0537 35.9447 13.8007 35.2169L14.0264 34.9968C14.8387 34.2039 15.7583 33.2881 16.4723 32.317C17.1774 31.358 17.7809 30.2158 17.7809 28.9688C17.7809 27.3034 18.3484 25.4543 18.9564 23.9686Z" fill="black"/>
<path d="M14.5 23C15.3284 23 16 22.3284 16 21.5C16 20.6716 15.3284 20 14.5 20C13.6716 20 13 20.6716 13 21.5C13 22.3284 13.6716 23 14.5 23Z" fill="black"/>
</svg>

<svg
  xmlns="http://www.w3.org/2000/svg"
  width="24"
  height="24"
  viewBox="0 0 24 24"
  fill="none"
  stroke="currentColor"
  stroke-width="2"
  stroke-linecap="round"
  stroke-linejoin="round"
>
  <path d="M37 16v2h-7v-2z" />
  <path d="M30 13v2h7v-2z" />
  <path d="M30 21h7v-2h-7z" />
  <path
    fill-rule="evenodd"
    d="M7 8q-.464 0-.918.038l-.164-1.994Q6.454 6 7 6c7.18 0 13 5.82 13 13v1.302l.043.05c2.922 3.44 4.47 6.828 4.492 10.17.926.08 1.697.372 2.29.907.695.625 1.012 1.46 1.159 2.267.146.802.14 1.677.109 2.484q-.019.45-.041.863c-.027.51-.052.986-.052 1.457 0 .393.133.583.317.717.237.171.66.314 1.31.343 1.293.058 3.043-.356 4.6-1.066.769-.35 1.455-.758 1.989-1.183.545-.434.868-.837 1.006-1.159.118-.274.101-.467-.026-.673-.165-.266-.586-.655-1.538-1.058-1.026-.434-1.785-1.02-2.314-1.745-.526-.722-.777-1.519-.89-2.302-.112-.772-.092-1.564-.053-2.292q.017-.335.038-.646c.032-.503.061-.969.061-1.436H31v-2h-5a1 1 0 1 1 0-2h1V8.5C27 7.12 29.91 6 33.5 6S40 7.12 40 8.5V22h1a1 1 0 1 1 0 2h-5v2h-1.5c0 .534-.035 1.098-.069 1.624q-.019.293-.033.565c-.038.704-.047 1.332.035 1.9.08.556.244 1.019.528 1.409.282.386.728.765 1.476 1.081 1.126.476 1.982 1.077 2.459 1.847.514.83.505 1.72.164 2.515-.32.746-.922 1.396-1.599 1.935-.688.548-1.523 1.036-2.404 1.438-1.745.795-3.816 1.32-5.519 1.244-.848-.037-1.715-.229-2.396-.723C26.41 40.304 26 39.497 26 38.5c0-.52.03-1.092.058-1.635.014-.264.027-.522.037-.764.03-.786.025-1.474-.079-2.047-.103-.568-.286-.92-.529-1.139-.196-.176-.525-.35-1.122-.4-.569 3.184-2.548 6.138-5.707 8.895l-.368.32-.48-.092-.005-.001-.014-.003-.05-.01-.185-.038a35.847 35.847 0 0 1-2.778-.702 21 21 0 0 1-2.458-.883c-.756-.337-1.532-.767-2.048-1.316l-.075-.084-.197-.084V43H8v-6a1 1 0 0 1 1.394-.92l.718.309c.108-.198.233-.381.357-.548.476-.637 1.205-1.346 1.915-2.036l.245-.24c.82-.8 1.628-1.61 2.232-2.433.613-.834.92-1.55.92-2.163 0-2.054.682-4.189 1.324-5.758.326-.795.651-1.47.896-1.945l.023-.047A1 1 0 0 1 18 21v-2c0-6.075-4.925-11-11-11m30.378.599c.295.113.495.22.622.301V22h-9V8.9c.127-.08.327-.188.622-.301C30.516 8.255 31.886 8 33.5 8s2.984.255 3.878.599m-18.422 15.37c.174-.424.347-.81.506-1.146 2.294 3.043 3.236 5.831 3.05 8.41-.2 2.797-1.742 5.568-4.8 8.341l-.37-.083a34 34 0 0 1-1.994-.524 19 19 0 0 1-2.214-.793c-.606-.27-1.043-.532-1.301-.759.038-.08.109-.204.238-.377.375-.501.983-1.093 1.73-1.821l.225-.22c.813-.793 1.732-1.709 2.446-2.68.705-.959 1.309-2.101 1.309-3.348 0-1.666.567-3.515 1.175-5"
    clip-rule="evenodd"
  />
  <path d="M14.5 23a1.5 1.5 0 1 0 0-3 1.5 1.5 0 0 0 0 3" />
</svg>
